static/icons/sun.svg

<svg width="24px" height="24px" viewBox="0 0 24 24" fill="none" xmlns="http://www.w3.org/2000/svg">
<path d="M17 12C17 14.7614 14.7614 17 12 17C9.23858 17 7 14.7614 7 12C7 9.23858 9.23858 7 12 7C14.7614 7 17 9.23858 17 12Z" fill="black"/>
<path fill-rule="evenodd" clip-rule="evenodd" d="M12 1.25C12.4142 1.25 12.75 1.58579 12.75 2V4C12.75 4.41421 12.4142 4.75 12 4.75C11.5858 4.75 11.25 4.41421 11.25 4V2C11.25 1.58579 11.5858 1.25 12 1.25ZM3.66865 3.71609C3.94815 3.41039 4.42255 3.38915 4.72825 3.66865L6.95026 5.70024C7.25596 5.97974 7.2772 6.45413 6.9977 6.75983C6.7182 7.06553 6.2438 7.08677 5.9381 6.80727L3.71609 4.77569C3.41039 4.49619 3.38915 4.02179 3.66865 3.71609ZM20.3314 3.71609C20.6109 4.02179 20.5896 4.49619 20.2839 4.77569L18.0619 6.80727C17.7562 7.08677 17.2818 7.06553 17.0023 6.75983C16.7228 6.45413 16.744 5.97974 17.0497 5.70024L19.2718 3.66865C19.5775 3.38915 20.0518 3.41039 20.3314 3.71609ZM1.25 12C1.25 11.5858 1.58579 11.25 2 11.25H4C4.41421 11.25 4.75 11.5858 4.75 12C4.75 12.4142 4.41421 12.75 4 12.75H2C1.58579 12.75 1.25 12.4142 1.25 12ZM19.25 12C19.25 11.5858 19.5858 11.25 20 11.25H22C22.4142 11.25 22.75 11.5858 22.75 12C22.75 12.4142 22.4142 12.75 22 12.75H20C19.5858 12.75 19.25 12.4142 19.25 12ZM17.0255 17.0252C17.3184 16.7323 17.7933 16.7323 18.0862 17.0252L20.3082 19.2475C20.6011 19.5404 20.601 20.0153 20.3081 20.3082C20.0152 20.6011 19.5403 20.601 19.2475 20.3081L17.0255 18.0858C16.7326 17.7929 16.7326 17.3181 17.0255 17.0252ZM6.97467 17.0253C7.26756 17.3182 7.26756 17.7931 6.97467 18.086L4.75244 20.3082C4.45955 20.6011 3.98468 20.6011 3.69178 20.3082C3.39889 20.0153 3.39889 19.5404 3.69178 19.2476L5.91401 17.0253C6.2069 16.7324 6.68177 16.7324 6.97467 17.0253ZM12 19.25C12.4142 19.25 12.75 19.5858 12.75 20V22C12.75 22.4142 12.4142 22.75 12 22.75C11.5858 22.75 11.25 22.4142 11.25 22V20C11.25 19.5858 11.5858 19.25 12 19.25Z" fill="black"/>
</svg>

<svg xmlns="http://www.w3.org/2000/svg" width="24" height="24" fill="none"><path fill="#000" d="M17 12a5 5 0 1 1-10 0 5 5 0 0 1 10 0"/><path fill="#000" fill-rule="evenodd" d="M12 1.25a.75.75 0 0 1 .75.75v2a.75.75 0 0 1-1.5 0V2a.75.75 0 0 1 .75-.75M3.669 3.716a.75.75 0 0 1 1.06-.047L6.95 5.7a.75.75 0 1 1-1.012 1.107L3.716 4.776a.75.75 0 0 1-.047-1.06m16.662 0a.75.75 0 0 1-.047 1.06l-2.222 2.031A.75.75 0 0 1 17.05 5.7l2.222-2.031a.75.75 0 0 1 1.06.047M1.25 12a.75.75 0 0 1 .75-.75h2a.75.75 0 0 1 0 1.5H2a.75.75 0 0 1-.75-.75m18 0a.75.75 0 0 1 .75-.75h2a.75.75 0 0 1 0 1.5h-2a.75.75 0 0 1-.75-.75m-2.224 5.025a.75.75 0 0 1 1.06 0l2.222 2.223a.75.75 0 0 1-1.06 1.06l-2.222-2.222a.75.75 0 0 1 0-1.06m-10.051 0a.75.75 0 0 1 0 1.061l-2.223 2.222a.75.75 0 0 1-1.06-1.06l2.222-2.223a.75.75 0 0 1 1.06 0M12 19.25a.75.75 0 0 1 .75.75v2a.75.75 0 0 1-1.5 0v-2a.75.75 0 0 1 .75-.75" clip-rule="evenodd"/></svg>
